assets/img/icons/lightmode/nft.svg

<?xml version="1.0" encoding="UTF-8" standalone="no"?>
<svg
   width="50"
   height="50"
   viewBox="0 0 50 50"
   fill="none"
   version="1.1"
   id="svg1067"
   sodipodi:docname="nft.svg"
   inkscape:version="1.1 (c4e8f9ed74, 2021-05-24)"
   xmlns:inkscape="http://www.inkscape.org/namespaces/inkscape"
   xmlns:sodipodi="http://sodipodi.sourceforge.net/DTD/sodipodi-0.dtd"
   xmlns="http://www.w3.org/2000/svg"
   xmlns:svg="http://www.w3.org/2000/svg">
  <sodipodi:namedview
     id="namedview1069"
     pagecolor="#ffffff"
     bordercolor="#666666"
     borderopacity="1.0"
     inkscape:pageshadow="2"
     inkscape:pageopacity="0.0"
     inkscape:pagecheckerboard="0"
     showgrid="false"
     inkscape:zoom="14.54"
     inkscape:cx="23.658872"
     inkscape:cy="25.034388"
     inkscape:window-width="1920"
     inkscape:window-height="1053"
     inkscape:window-x="3000"
     inkscape:window-y="840"
     inkscape:window-maximized="1"
     inkscape:current-layer="svg1067" />
  <circle
     cx="10"
     cy="10"
     r="10"
     fill="#9a52ff"
     id="circle1052" />
  <path
     d="M 39.2019,44.3773 C 38.8955,43.92 38.2766,43.7984 37.8193,44.106 34.1548,46.5695 29.7497,48.0052 24.9997,48.0058 18.6432,48.0051 12.8986,45.432 8.73223,41.2676 4.56787,37.1012 1.99551,31.3562 1.99473,24.9996 1.99541,19.3901 4.00088,14.2599 7.33428,10.2676 l 0.76836,3.713 c 0.11172,0.5398 0.63877,0.886 1.17793,0.775 0.53974,-0.1117 0.88603,-0.6394 0.77433,-1.1785 L 8.68447,6.95415 1.91973,6.83852 C 1.36934,6.82925 0.914649,7.26792 0.906055,7.81899 0.896778,8.36938 1.33545,8.82339 1.88652,8.83266 L 5.87549,8.90112 C 2.21016,13.2491 -6.83435e-4,18.8698 1.5848e-7,25.0003 6.83752e-4,38.8077 11.1918,49.9994 24.999,50 c 5.1555,0 9.9527,-1.5627 13.9324,-4.2387 0.4572,-0.3071 0.5782,-0.9267 0.2705,-1.384 z"
     fill="#ffffff"
     id="path1054"
     style="fill:#000000" />
  <path
     d="M 47.8597,41.1115 44.1613,41.0478 C 47.8011,36.7065 50.0001,31.107 50.0001,24.9997 49.9995,11.1918 38.8071,6.83799e-4 24.9998,2.04918e-7 19.6097,-6.83389e-4 14.6084,1.70898 10.5257,4.61309 10.0764,4.93213 9.97144,5.55498 10.2905,6.00361 c 0.319,0.44873 0.9419,0.55371 1.3905,0.23526 3.7609,-2.67344 8.3514,-4.24414 13.3188,-4.24473 6.3565,6.8e-4 12.101,2.57305 16.268,6.73818 4.1644,4.16568 6.7375,9.91148 6.7382,16.26748 -7e-4,5.7152 -2.0865,10.9345 -5.5344,14.9586 l -0.8268,-3.9962 c -0.1117,-0.5391 -0.6395,-0.886 -1.1779,-0.7743 -0.5398,0.1117 -0.8861,0.6388 -0.7744,1.1785 l 1.3701,6.6225 6.764,0.1163 c 0.5504,0.0099 1.0044,-0.4294 1.0137,-0.9798 0.0085,-0.5498 -0.4302,-1.0046 -0.9806,-1.0139 z"
     fill="#ffffff"
     id="path1056"
     style="fill:#000000" />
  <path
     d="m 31.7999,16.9353 c 0.173,-0.1722 0.4071,-0.2688 0.6511,-0.2688 h 2.0633 c 0.1646,0 0.2469,0.1992 0.1303,0.3154 l -5.699,5.6788 c -1.0517,1.043 -2.469,1.6277 -3.9456,1.6277 -1.4766,0 -2.8939,-0.5847 -3.9456,-1.6277 l -5.7021,-5.6788 c -0.1167,-0.1162 -0.0344,-0.3154 0.1303,-0.3154 h 2.0661 c 0.2442,0 0.4784,0.0968 0.6515,0.2691 L 22.5,21.2184 c 0.6654,0.6609 1.5628,1.0316 2.4978,1.0316 0.935,0 1.8323,-0.3707 2.4978,-1.0316 z M 18.1646,33.0641 c -0.173,0.1723 -0.4072,0.2691 -0.6514,0.2691 h -2.0661 c -0.1647,0 -0.247,-0.1993 -0.1303,-0.3155 l 5.7388,-5.7145 C 22.1072,26.2609 23.524,25.6766 25,25.6766 c 1.476,0 2.8928,0.5843 3.9444,1.6266 l 5.7388,5.7145 c 0.1167,0.1162 0.0344,0.3155 -0.1303,0.3155 h -2.0658 c -0.2443,0 -0.4787,-0.0969 -0.6517,-0.2694 L 27.5,28.7422 c -0.6654,-0.661 -1.5628,-1.0316 -2.4978,-1.0316 -0.935,0 -1.8323,0.3706 -2.4978,1.0316 z"
     fill="#ffffff"
     id="path1058"
     style="fill:#000000" />
  <defs
     id="defs1065">
    <clipPath
       id="clip0">
      <rect
         width="50"
         height="50"
         fill="white"
         id="rect1062" />
    </clipPath>
  </defs>
</svg>

<svg width="50" height="50" viewBox="0 0 50 50" fill="none" xmlns="http://www.w3.org/2000/svg">
<g clip-path="url(#clip0)">
<circle cx="10" cy="10" r="10" fill="#9A52FF"/>
<path d="M39.2019 44.3768C38.8955 43.9195 38.2766 43.7979 37.8193 44.1055C34.1548 46.569 29.7497 48.0047 24.9997 48.0053C18.6432 48.0046 12.8986 45.4315 8.73223 41.2671C4.56787 37.1007 1.99551 31.3557 1.99473 24.9991C1.99541 19.3896 4.00088 14.2594 7.33428 10.2671L8.10264 13.9801C8.21436 14.5199 8.74141 14.8662 9.28057 14.7551C9.82031 14.6434 10.1666 14.1157 10.0549 13.5766L8.68447 6.95366L1.91973 6.83804C1.36934 6.82876 0.914649 7.26743 0.906055 7.8185C0.896778 8.36889 1.33545 8.8229 1.88652 8.83218L5.87549 8.90063C2.21016 13.2486 -0.000683435 18.8693 1.5848e-07 24.9999C0.000683752 38.8072 11.1918 49.9989 24.999 49.9996C30.1545 49.9996 34.9517 48.4368 38.9313 45.7608C39.3886 45.4537 39.5096 44.8341 39.2019 44.3768Z" fill="#343437"/>
<path d="M47.8592 41.1115L44.1608 41.0478C47.8006 36.7065 49.9996 31.107 49.9996 24.9997C49.999 11.1918 38.8066 0.000683799 24.9993 2.04918e-07C19.6092 -0.000683389 14.6079 1.70898 10.5252 4.61309C10.0759 4.93213 9.97095 5.55498 10.29 6.00361C10.609 6.45234 11.2319 6.55732 11.6805 6.23887C15.4415 3.56543 20.0319 1.99473 24.9993 1.99414C31.3558 1.99482 37.1003 4.56719 41.2673 8.73232C45.4317 12.898 48.0048 18.6438 48.0055 24.9998C48.0048 30.715 45.919 35.9343 42.4711 39.9584L41.6443 35.9622C41.5326 35.4231 41.0048 35.0762 40.4664 35.1879C39.9266 35.2996 39.5803 35.8267 39.692 36.3664L41.0621 42.9889L47.8261 43.1052C48.3765 43.1151 48.8305 42.6758 48.8398 42.1254C48.8483 41.5756 48.4096 41.1208 47.8592 41.1115Z" fill="#343437"/>
<path d="M31.7999 16.9358C31.9729 16.7636 32.207 16.667 32.451 16.667H34.5143C34.6789 16.667 34.7612 16.8662 34.6446 16.9824L28.9456 22.6612C27.8939 23.7042 26.4766 24.2889 25 24.2889C23.5234 24.2889 22.1061 23.7042 21.0544 22.6612L15.3523 16.9824C15.2356 16.8662 15.3179 16.667 15.4826 16.667H17.5487C17.7929 16.667 18.0271 16.7637 18.2002 16.9361L22.5 21.2189C23.1654 21.8798 24.0628 22.2504 24.9978 22.2504C25.9328 22.2504 26.8301 21.8798 27.4956 21.2189L31.7999 16.9358ZM18.1646 33.0646C17.9916 33.2369 17.7574 33.3337 17.5132 33.3337H15.4471C15.2824 33.3337 15.2001 33.1344 15.3168 33.0182L21.0556 27.3036C22.1072 26.2614 23.524 25.6771 25 25.6771C26.476 25.6771 27.8928 26.2614 28.9444 27.3036L34.6832 33.0182C34.7999 33.1344 34.7176 33.3337 34.5529 33.3337H32.4871C32.2427 33.3337 32.0084 33.2368 31.8354 33.0643L27.5 28.7427C26.8346 28.0817 25.9372 27.7111 25.0022 27.7111C24.0672 27.7111 23.1699 28.0817 22.5044 28.7427L18.1646 33.0646Z" fill="#343437"/>
</g>
<defs>
<clipPath id="clip0">
<rect width="50" height="50" fill="white"/>
</clipPath>
</defs>
</svg>
